build/img/icons/blank2.svg

<svg width="41" height="40" viewBox="0 0 41 40" fill="none" xmlns="http://www.w3.org/2000/svg">
<path d="M33 5.83337L30.5 3.33337L28 5.83337L25.5 3.33337L23 5.83337L20.5 3.33337L18 5.83337L15.5 3.33337L13 5.83337L10.5 3.33337V26.6667H5.5V31.6667C5.5 34.4334 7.73333 36.6667 10.5 36.6667H30.5C33.2667 36.6667 35.5 34.4334 35.5 31.6667V3.33337L33 5.83337ZM25.5 33.3334H10.5C9.58333 33.3334 8.83333 32.5834 8.83333 31.6667V30H25.5V33.3334ZM32.1667 31.6667C32.1667 32.5834 31.4167 33.3334 30.5 33.3334C29.5833 33.3334 28.8333 32.5834 28.8333 31.6667V26.6667H13.8333V8.33337H32.1667V31.6667Z" fill="#5CC773"/>
<path d="M15.5 11.6666H25.5V15H15.5V11.6666ZM27.1667 11.6666H30.5V15H27.1667V11.6666ZM15.5 16.6666H25.5V20H15.5V16.6666ZM27.1667 16.6666H30.5V20H27.1667V16.6666Z" fill="#5CC773"/>
</svg>

<svg width="41" height="40" fill="none" xmlns="http://www.w3.org/2000/svg">
    <path d="m33 5.833-2.5-2.5-2.5 2.5-2.5-2.5-2.5 2.5-2.5-2.5-2.5 2.5-2.5-2.5-2.5 2.5-2.5-2.5v23.334h-5v5c0 2.766 2.233 5 5 5h20c2.767 0 5-2.234 5-5V3.333l-2.5 2.5zm-7.5 27.5h-15c-.917 0-1.667-.75-1.667-1.666V30H25.5v3.333zm6.667-1.666c0 .916-.75 1.666-1.667 1.666s-1.667-.75-1.667-1.666v-5h-15V8.333h18.334v23.334z" fill="#5CC773"/>
    <path d="M15.5 11.667h10V15h-10v-3.333zm11.667 0H30.5V15h-3.333v-3.333zm-11.667 5h10V20h-10v-3.333zm11.667 0H30.5V20h-3.333v-3.333z" fill="#5CC773"/>
</svg>
